src/assets/images/disconnect.svg

<svg width="28" height="28" xmlns="http://www.w3.org/2000/svg"><path d="M28 14c0-7.8-6.2-14-14-14S0 6.2 0 14s6.2 14 14 14 14-6.2 14-14zm-8.4 7L14 15.4 8.4 21c-.4.4-1 .4-1.4 0-.4-.4-.4-1 0-1.4l5.6-5.6L7 8.4c-.4-.4-.4-1 0-1.4.4-.4 1-.4 1.4 0l5.6 5.6L19.6 7c.4-.4 1-.4 1.4 0 .4.4.4 1 0 1.4L15.4 14l5.6 5.6c.4.4.4 1 0 1.4-.4.4-1 .4-1.4 0z" fill="#333"/></svg>

<?xml version="1.0" encoding="UTF-8"?>
<svg width="28px" height="28px" viewBox="0 0 28 28" version="1.1" xmlns="http://www.w3.org/2000/svg" xmlns:xlink="http://www.w3.org/1999/xlink">
    <title>关闭 (1)</title>
    <g id="v2-更新" stroke="none" stroke-width="1" fill="none" fill-rule="evenodd">
        <g id="点击已连接按钮后鼠标放在删除账号的悬浮状态(叉的颜色变深了)" transform="translate(-668.000000, -641.000000)" fill="#333333" fill-rule="nonzero">
            <g id="关闭-(1)" transform="translate(668.000000, 641.000000)">
                <path d="M28,14 C28,6.2 21.8,0 14,0 C6.2,0 0,6.2 0,14 C0,21.8 6.2,28 14,28 C21.8,28 28,21.8 28,14 Z M19.6,21 L14,15.4 L8.4,21 C8,21.4 7.4,21.4 7,21 C6.6,20.6 6.6,20 7,19.6 L12.6,14 L7,8.4 C6.6,8 6.6,7.4 7,7 C7.4,6.6 8,6.6 8.4,7 L14,12.6 L19.6,7 C20,6.6 20.6,6.6 21,7 C21.4,7.4 21.4,8 21,8.4 L15.4,14 L21,19.6 C21.4,20 21.4,20.6 21,21 C20.6,21.4 20,21.4 19.6,21 Z" id="形状"></path>
            </g>
        </g>
    </g>
</svg>
